X:83
T:Saint Liguori
C:Jean Duval
M:4/4
L:1/8
Z:robin.beech@mcgill.ca
R:reel
K:G
c |: BEGE cEGE | BEGE cFFc | BEGE cEGE | FGAG FDDc |
BEGE cEGE | BEGE cFFc | BEGE cEdE | e2dB e3 ::
eedB eedB | ABcB AFF2 | eedB eedB | Aege faa2 |
eedB ddcA | BBGE (3ABA FD | EFGE cEdE | e2dB e2 :|
